/* XPM */
static char *traverso[] = {
/* columns rows colors chars-per-pixel */
"32 32 176 2 ",
"   c None",
".  c #0D0F16",
"X  c #0E1116",
"o  c #111216",
"O  c #1B1416",
"+  c #171815",
"@  c #1C1915",
"#  c #1E1218",
"$  c #221616",
"%  c #2C1517",
"&  c #241A14",
"*  c #251119",
"=  c #2D1319",
"-  c #2C1815",
";  c #301617",
":  c #3B1C14",
">  c #371717",
",  c #232114",
"<  c #2E2713",
"1  c #3C2212",
"2  c #383712",
"3  c #4F111E",
"4  c #4F1918",
"5  c #41141A",
"6  c #531E16",
"7  c #5B1E17",
"8  c #50141C",
"9  c #791A1C",
"0  c #5B2D0F",
"q  c #5F3D0F",
"w  c #432112",
"e  c #402A12",
"r  c #492811",
"t  c #4F2312",
"y  c #532611",
"u  c #5A2611",
"i  c #572810",
"p  c #4E3310",
"a  c #533010",
"s  c #533B10",
"d  c #61360F",
"f  c #613B0F",
"g  c #71300E",
"h  c #78310E",
"j  c #7A3E0C",
"k  c #652A10",
"l  c #652116",
"z  c #712A11",
"x  c #702614",
"c  c #560E20",
"v  c #741221",
"b  c #5F460F",
"n  c #574910",
"m  c #60490F",
"M  c #7B4B0C",
"N  c #74510D",
"B  c #7B530C",
"V  c #70670D",
"C  c #776A0D",
"Z  c #7E780C",
"A  c #831F1A",
"S  c #991D1E",
"D  c #84360D",
"F  c #8A380C",
"G  c #96370D",
"H  c #9F360F",
"J  c #8B2C13",
"K  c #812B13",
"L  c #9E2917",
"P  c #962A16",
"I  c #933012",
"U  c #A23A0C",
"Y  c #AA3B0D",
"T  c #A02619",
"R  c #AE251B",
"E  c #A13212",
"W  c #BA3413",
"Q  c #AB1B22",
"!  c #D23E0F",
"~  c #CF271E",
"^  c #C82C1A",
"/  c #DB2D1C",
"(  c #C03016",
")  c #C53911",
"_  c #CB3614",
"`  c #D83317",
"'  c #D93F10",
"]  c #E32E1B",
"[  c #FD3C16",
"{  c #FF3918",
"}  c #F33519",
"|  c #C81E23",
" . c #D2142A",
".. c #F4152E",
"X. c #C32021",
"o. c #CA2220",
"O. c #FF2624",
"+. c #FF2B21",
"@. c #F52126",
"#. c #88470B",
"$. c #93470A",
"%. c #87560B",
"&. c #95540A",
"*. c #A34609",
"=. c #B24708",
"-. c #B45007",
";. c #B75C07",
":. c #847B0B",
">. c #947D0A",
",. c #AF6907",
"<. c #BB6106",
"1. c #AD7208",
"2. c #B07607",
"3. c #BB7B06",
"4. c #BC7106",
"5. c #C5420B",
"6. c #CD410D",
"7. c #CC4A07",
"8. c #D44809",
"9. c #D64D07",
"0. c #C65006",
"q. c #D25205",
"w. c #D65604",
"e. c #EE4F08",
"r. c #FE4D0B",
"t. c #E65F03",
"y. c #E05205",
"u. c #FF5507",
"i. c #FF5C04",
"p. c #FF5109",
"a. c #F15D02",
"s. c #F24310",
"d. c #FF4013",
"f. c #D46504",
"g. c #DC6F03",
"h. c #CA7C05",
"j. c #D47404",
"k. c #D87B04",
"l. c #E56403",
"z. c #EC6F02",
"x. c #F16102",
"c. c #FC6301",
"v. c #FE6B00",
"b. c #ED7902",
"n. c #FF7400",
"m. c #FF7C00",
"M. c #9E8409",
"N. c #9D8A09",
"B. c #AF8407",
"V. c #A18A09",
"C. c #BC8006",
"Z. c #BC8F06",
"A. c #AD9F08",
"S. c #B99F06",
"D. c #BB9506",
"F. c #AFA507",
"G. c #BEB206",
"H. c #C28506",
"J. c #D78104",
"K. c #ED8E02",
"L. c #FF8400",
"P. c #FF8F00",
"I. c #FE9400",
"U. c #F49601",
"Y. c #D9A304",
"T. c #FFA300",
"R. c #FDAB00",
"E. c #E6B702",
"W. c #FCB200",
"Q. c #FEBD00",
"!. c #FECA00",
"~. c #E4D202",
"^. c #FED400",
"/. c #FFDC00",
"(. c #FFE400",
"). c #FFE800",
/* pixels */
"    o o o o o o o o o o o o o o o o o o o o o o o o o o o o     ",
"  o o o o o o o o o o o o o o o o o o o o o o o o o o o o o o   ",
"o o o o o o o o o o o o o o o o o o o o o o o o o o o o o o o o ",
"o o o o o o o o o o o o o o o o o o o o o o o o o o o o o o o o ",
"o o o o o o o o o o o o o o o o o o o o o o o o o o o o o o o o ",
"o o o o o o o X . o + o . X o o o o X X o o o X X o o o o o o o ",
"o o o o o o o 2 Z F.G.A.C < X o o X < N 1.3.,.M 1 o o o o o o o ",
"o o o o o , :.~.).(./.^.!.Y.b o o f J.I.P.L.m.n.l.D $ o o o o o ",
"o o o o + V.^.^.!.Q.W.W.R.T.K.f d b.m.n.v.c.i.i.u.r.E O o o o o ",
"o o o o , Y.Q.R.H.N s M j.L.m.l.t.c.i.9.h y z ) [ { / $ o o o o ",
"o o o o o B h.%.& . X X 1 q.i.u.p.r.! : X X X $ A o.9 o o o o o ",
"o o o o o o @ o o o o o X u s.d.[ } 7 X o o o o o # o o o o o o ",
"o o o o o o o o o o o o o o L +.O.S o o o o o o o o o o o o o o ",
"o o o o o o o o o o o o o X =  . .= X o o o o o o o o o o o o o ",
"o o o o o o o o o o o o o o X c c X o o o o o o o o o o o o o o ",
"o o o o o o o o o o o o o o o o o o o o o o o o o o o o o o o o ",
"o o o o o o o o o o o o o o o o o o o o o o o o o o o o o o o o ",
"o o o o o o o o o o o o o o o o o o o o o o o o o o o o o o o o ",
"o o o o o o X X X . o o o o o X X o o o o X o o X o o o o o o o ",
"o o o o o V N.N.>.n o o o o @ %.B + o X p #.& @ #.0 X y F $ o o ",
"o o o o o S.E.M.D.E.m X o X p U.K.e X X a z.r 1 x.=.o U 5.+ o o ",
"o o o o o Z.B.o + 3.3.o o o &.j.g.#.X o & w.g k 8.5.; ) J X o o ",
"o o o o o C.2.o X %.k.& X & f.j $.0.@ o o Y U I I W l ` 6 X o o ",
"o o o o o 4.,.o X $.f.& X 0 a.D G e.w X X x _ ( 7 T R ~ % X o o ",
"o o o o o <.;.& 1 w.*.o o U e.6.! s.J X X : ] / ; 9 @.Q o o o o ",
"o o o o o -.x.q.y.7.: X - ' K @ @ L ^ # o O X.| O 8 ..v X o o o ",
"o o o o o w i i t & o o $ 6 $ X X % 4 O o o > 5 o # 3 * o o o o ",
"o o o o o X X X X o o o o X o o o X X o o o X X o o X o o o o o ",
"o o o o o o o o o o o o o o o o o o o o o o o o o o o o o o o o ",
"o o o o o o o o o o o o o o o o o o o o o o o o o o o o o o o o ",
"  o o o o o o o o o o o o o o o o o o o o o o o o o o o o o o   ",
"    o o o o o o o o o o o o o o o o o o o o o o o o o o o o     "
};
